!!!!SEGMENT: pl-wtm--r-1227--002_lodwigowski-edward-stefan--niech-nam-zyje-gospodarz.krn
!!!cenid: 18xx:1942
!!!COM: Łodwigowski, Edward Stefan
!!!COM-rismid: pe30111147
!!!CDT: 1815/08/14-1895/11/12
!!!CNT: Polish
!!!OTL: Niech nam żyje gospodarz
!!!PDT:
!!!AGN:
!!!SMS-siglum: PL-Wtm
!!!SMS-shelfmark: R 1227
!!!SMS-shelfwork: 002 W
!!!SMS-variant:
!!!SMS-altvar:
!!!NIFC-rismid: 1001084026
!!!URL-scan: http://repozytorium.nifc.pl/skany/pl-wtm-nut--r1226-1227
!!!ONB-nifc: UWAGA: No. 74
!!!OMD: No. 74. Allegretto
**kern	**fing	**kern	**fing	**dynam
*part2	*	*part1	*	*part1
*staff2	*	*staff1	*	*
*Ipiano	*	*Ipiano	*	*
*I"Piano	*	*I"Piano	*	*
*clefF4	*	*clefG2	*	*
*k[b-e-]	*	*k[b-e-]	*	*
*B-:	*	*B-:	*	*
*M2/4	*	*M2/4	*	*
*>[A,A,B]	*>[A,A,B]	*>[A,A,B]	*>[A,A,B]	*>[A,A,B]
=1	=1	=1	=1	=1
*all\right	*	*all\right	*	*
*>A	*>A	*>A	*>A	*>A
*	*	*	*^	*
*	*below	*	*	*	*
!	!	!LO:TX:a:i:t=Niech nam żyje gospodarz	!	!	!
4BB-/	5	8b-L 8d'/	4	1	f
.	.	8b- 8d'/	.	.	.
*	*above	*	*	*	*
4B-\	1	8dd 8f'/	.	.	.
.	.	8ddJ 8f'/	.	.	.
*	*	*	*v	*v	*
=2	=2	=2	=2	=2
*	*^	*	*	*
4A 4F\	2	4	8ccL 8e-'/	.	.
.	.	.	8ccJ 8e-'/	.	.
4B-\	1	.	4b- 4d^/	.	.
*	*v	*v	*	*	*
=3	=3	=3	=3	=3
*	*	*	*^	*
8BB-\L	.	4dd 4b-^^\	4	2	.
8F\	.	.	.	.	.
8B-\	.	4ff 4dd^^\	5	3	.
8F\J	.	.	.	.	.
*	*	*	*v	*v	*
=4	=4	=4	=4	=4
8A\L	.	8ee-L 8cc\	2 4	.
8F\J	.	8ee-J 8cc\	1 3	.
4B-\	.	4dd 4b-\	2 4	.
!!LO:PB:g=original
=5:|!	=5:|!	=5:|!	=5:|!	=5:|!
*>B	*>B	*>B	*>B	*>B
*^	*	*	*	*
*	*	*below	*	*	*
4BB-/	16BB-\LL	4	8ddL 8b-'\	2 4	.
.	16F\	.	.	.	.
.	16D\	.	8ff 8dd'\	4 5	.
.	16F\JJ	.	.	.	.
4BB-/	16BB-\LL	.	8ff 8dd'\	2 4	.
.	16F\	.	.	.	.
.	16D\	.	8ffJ 8dd'\	.	.
.	16F\JJ	.	.	.	.
=6	=6	=6	=6	=6	=6
4AA/	16AA\LL	5	(8ffL 8dd\	2 4	.
.	16F\	.	.	.	.
.	16C\	.	8ee-J 8cc\)	.	.
.	16F\JJ	.	.	.	.
4AA/	16AA\LL	.	4ee- 4cc\	2 4	sf
.	16F\	.	.	.	.
.	16C\	.	.	.	.
.	16F\JJ	.	.	.	.
*v	*v	*	*	*	*
=7	=7	=7	=7	=7
16FF\LL	5	8ccL 8a'\	1 2	.
16F\	.	.	.	.
16AA\	4	8ee- 8cc'\	2 4	.
16F\JJ	.	.	.	.
16FF\LL	.	8ee- 8cc'\	1 3	.
16F\	.	.	.	.
16AA\	.	8ee-J 8cc'\	.	.
16F\JJ	.	.	.	.
=8	=8	=8	=8	=8
*^	*	*	*	*
4BB-/	16BB-\LL	4	(8ee-L 8cc\	1 3	.
.	16F\	.	.	.	.
.	16D\	.	8ddJ 8b-\)	2 4	.
.	16F\JJ	.	.	.	.
4BB-/	16BB-\LL	.	4dd 4b-\	3 5	sf
.	16F\	.	.	.	.
.	16D\	.	.	.	.
.	16F\JJ	.	.	.	.
*v	*v	*	*	*	*
=9	=9	=9	=9	=9
*	*above	*	*	*
8BB-\L	5	8b-L 8f 8d'/	4	.
16D\L	4	8b- 8f 8d'/	.	.
16F\JJ	2	.	.	.
8B-\L	1	8dd 8b- 8f'/	5	.
8BB-\J	.	8ddJ 8b- 8f'/	.	.
!!LO:PB:g=original
=10	=10	=10	=10	=10
4F\	1	8ccL 8a 8f'/	4	.
.	.	8ccJ 8a 8f'/	.	.
8FF/L	5	8ffL 8cc 8a'\	5	.
8F/J	.	8ffJ 8cc 8a'\	.	.
=11	=11	=11	=11	=11
8BB-/L	5	8b-L 8f 8d'/	4	.
16D/L	4	8b-J 8f 8d'/	.	.
16F/JJ	.	.	.	.
8B-\L	.	8ddL 8b- 8f'\	5	.
8BB-\J	.	8ddJ 8b- 8f'\	.	.
=12	=12	=12	=12	=12
4F\	1	8ccL 8a 8f'\	.	.
.	.	8ccJ 8a 8f'\	.	.
8FF/L	.	8ffL 8cc 8a'\	.	.
8F/J	.	8ffJ 8cc 8a'\	.	.
=13	=13	=13	=13	=13
*	*below	*	*	*
4F 4BB-^^\	4	4bb- 4ff 4dd^^\	4	ff
4F^^\	.	4ff 4cc 4a^^\	5	.
=14	=14	=14	=14	=14
4F 4BB-^^;\	.	4dd 4b- 4f^^;\	.	.
4r	.	4r	.	.
==	==	==	==	==
*-	*-	*-	*-	*-
!!!system-decoration: {s1,s2}
!!!AIN: 2 piano
!!!ENC: Marta Lawrence
!!!ENC: 2021-05-02
!!!ENC: Marcin Jachim
!!!END: 2021-04-17
